X:1
T:I kvällen
T:Helena Munktell (1852-1919)
T:Sång till skogen
T:Rättvik 1891
%%score { ( 1 2 ) | ( 3 4 ) }
L:1/8
Q:1/4=90
M:4/4
K:Bb
V:1 treble nm="Vocals"
V:2 treble 
V:3 bass 
V:4 bass 
V:1
"^Långsamt"!p! d2 |"^Instrument change" d4 c4 | %2
w: I|tå- rar|
"^Instrument change" (B3 c/B/"^Instrument change" A2) G2 | %3
w: ba- * * * dad|
"^Instrument change" G3"^Instrument change" ^F !breath!A2 d2 |"^Instrument change" d4 c4 | %5
w: stod du nyss då|so- lens|
"^Instrument change" (B3 c/B/"^Instrument change" A2) G2 | %6
w: förs- * * * ta|
"^Instrument change" G3"^Instrument change" _G !breath!F2 (=GA) | %7
w: var- ma kyss göt *|
"^Instrument change" c3"^Instrument change" A G2 F2 | %8
w: pur- pur ö- ver|
"^Instrument change" F4"^Instrument change" x2 F2 | %9
w: sky. Din|
"^Instrument change" F3"^Instrument change" F B2 A2 | %10
w: tår föll tyst du|
"^Instrument change" G3"^Instrument change" F !breath!F2 A2 | %11
w: syn- tes glad, din|
"^cresc." A3"^Instrument change" A e2 d2 | %12
w: stil- la mor- gon-|
"^Instrument change" c3"^Instrument change" B !breath!A2 (Bd) |!f!"^Instrument change" f3 d B2 G2 | %14
w: bön du bad med *|lov * da- gen|
"^Instrument change" !breath!F2 B2 G2 F2 |"^Instrument change" (D4"^Instrument change" E2) F2 | %16
w: ny, med lov för|da- * gen|
"^Instrument change" B8 |] %17
w: ny.|
V:2
 D2 | D4 E4 | E6 B,2 | C3 C C2 =F2 | (A2"^Instrument change" G2) ^F4 | G4 ^F2 G2 | E3 E E2 (D=E) | %7
 F3 C C2 F2 | F4 z2 C2 | _C3 B, B,2 =C2 | =E3 F F2 F2 | =E3 _E E2 F2 | A3 G F2 ([DF][FB]) | %13
 [Bd]3 [FB] [DF]2 [^C=E]2 | [DF]2 D2 E2 E2 | D4 E2 E2 | D8 |] %17
V:3
!p! F,2 | F,4 ^F,4 | (G,4 !courtesy!=F,2) G,2 | A,3 A, !breath!^F,2 A,2 | (C2 B,2) (A,2 D2) | %5
 D6 D2 | C3 C !breath!C2 (B,C) | A,3 F, =E,2 F,2 | F,4 z2 A,2 | _A,3 G, G,2 F,2 | %10
 B,3 A, !breath!A,2 C2 |"^cresc." C3 C A,2 B,2 | C3 D E2 x2 | x8 | z2!f! B,2 B,2 A,2 | %15
 (B,4 G,2) (A,F,) | F,8 |] %17
V:4
 B,,2 | B,,4 B,,4 | B,,6 E,2 | D,3 D, D,2 D,2 | D,4 D,4 | (G,4 A,2) B,2 | C3 B, A,2 (B,C) | %7
 C,3 C, C,2 F,2 | F,4 x2 F,2 | D,3 _D, D,2 C,2 | C,3 F, F,2 F,2 | F,3 F, F,2 F,2 | F,3 F, F,2 z2 | %13
 z8 | x2 B,2 G,2 C,2 | F,6 B,,2 | B,,8 |] %17

